X: 585
T: Doldur Getir Ey Saki-i...
C: Kazasker Mustafa İzzet Efendi
O: Turkey
F: http://compmusic.upf.edu/node/140
N: segah--sarki--agir_aksaksemai--doldur_getir--kazasker_mustafa_izzet_efendi
N: makam= segah
N: form= sarki
N: usul= agir_aksaksemai = 10/4
M: 10/4
L: 1/16
K: C _1/4B _1/4e ^f 
Q: 1/4=51
%%MIDI tuningsystem comma53
^A2B4d2 d3c c3B B3A A3G e2dc dcBA B6z2  | \
w:  Dol *  *  dur  *  *  *  *  *  *  *  ge tir  *  ey   | 
c2d4dc B^ABc d6(3cBc d2cB f2_7/8ed edcB c2Bc dcdc  | 
w:  sâ *  *  *  *  *  *  *  *  *  *  *  *  *  *  ki  i  *  gül  | 
B3c d/c/d/e/dc B4 _3/4e3/2d/ef efed d2cB aggf feed d2cB gfed  | 
w:  çeh  *  *  *  *  *  *  *  *  çeh *  *  *  *  *  *  *  *  *  *  re  *  pi *  yâ  | 
c2d6 z4 dcde d2cB c3B gf_3/4ed c2d6 z4  | \
w:  le  *  gel  *  *  *  *  *  *  ey  *  câ *  *  *  nım    | 
^e2f2 fgf_3/4e d2de f3g fede f2ed aggf f2ed e2de fefe  | 
w:  Sâ *  *  *  *  *  gâr  *  *  *  *  *  *  *  *  *  *  *  ye *  ti *  şir   | 
d3_3/4e f/_7/8e/f/g/f_3/4e d3c defg a2gf feed gfed edcB c2Bc dcdc  | 
w:  bu  *  *  *  *  *  *  *  *  *  bu  *  *  *  *  *  *  *  *  *  *  ge *  ce *  lik   | 
B3c d/c/d/e/dc B4 _3/4edef efed d2cB f2ed dccB B^AAG Bcd_1/4e  | 
w:  def  *  *  *  *  *  *  *  *  def  *  *  *  *  *  *  *  *  *  *  i  me *  lâ  | 
d2c4cB B4 ^e2f4e2 d^cB2 g3/2f/ef e2f6 z4  | \
w:  le  *  *  *  *  gel  *  *  ey  *  *  câ *  *  *  nım    | 
^e2f2 fgfe edd^c cBB^A B=c2B/A/ B4 aggf gfeg f6z2  | 
w:  Aks_ *  *  *  *  *  ey *  *  *  *  *  *  *  *  *  *  *  *  le *  ye  *  ta   | 
d2e6 efed g2fe a2gf f3/2e/d2 g2=fe edd^c d4 dcd=c  | 
w:  bâ *  *  *  *  *  *  *  *  *  *  *  *  *  *  de  o  *  ruh  | 
B3c d/c/d/e/dc B4 _3/4e3/2d/ef efed d2cB aggf feed d2cB gfed  | 
w:  sâ  *  *  *  *  *  *  *  *  sâ *  *  *  *  *  *  *  *  *  *  re  *  i  *  â  | 
c2d6 z4 dcde d2cB c3B gf_3/4ed c2d6 z4  | \
w:  le  *  gel  *  *  *  *  *  *  ey  *  câ *  *  *  nım    | 
^e2f2 fgf_3/4e d2de f3g fede f2ed aggf f2ed e2de fefe  | 
w:  Sâ *  *  *  *  *  gâr  *  *  *  *  *  *  *  *  *  *  *  ye *  ti *  şir   | 
d3_3/4e f/_7/8e/f/g/f_3/4e d3c defg a2gf feed gfed edcB c2Bc dcdc  | 
w:  bu  *  *  *  *  *  *  *  *  *  bu  *  *  *  *  *  *  *  *  *  *  ge *  ce *  lik   | 
B3c d/c/d/e/dc B4 _3/4edef efed d2cB f2ed dccB B^AAG Bcd_1/4e  | 
w:  def  *  *  *  *  *  *  *  *  def  *  *  *  *  *  *  *  *  *  *  i  me *  lâ  | 
d2c4cB B4 |
w:  le   | 


